X:1
T:Emmanuel - Bass
T:Emmanuel - Bass
L:1/8
Q:1/4=66
M:4/4
K:Bb
V:1 bass nm="Piano" snm="Pno."
V:1
 z4 F,2 F,2 |S B,,4- B,,B,, B,,>B,, | B,,4 z2 E,>E, | D,4- D,D,=E,E, | F,6 z2 | z4 A,2 D,2 | %6
w: Call His|name * Em- man- u-|el God will|come * with us to|dwell|All is|
w: ||* * (has)||||
 G,4 z B,A,G, | F,4 z F, F,>F,!dacoda! | B,,8 | z8 | z8 | z8 | z8 | z8 | z2 (F,2 _G,4 | F,8) | %16
w: well for He will|Come Em- man- u-|el||||||Ooo _|_|
w: * (for Je- sus|is) * * *|||||||||
 z2 (C,6 | F,4-) F, z F,F,!D.S.! |O B,,4 z2 z G,/A,/ | G,G,/G,/- G,G, F, F,2 F,/F,/ | %20
w: Ooo|_ _ Call His|el. When you|fell that you're * for sa- ken and you|
w: ||||
 E,E,/E,/- E,E, E,2 z2 | z8 | z8 | z2 (G,2 F,4 | =E,4 E,2) z G,/G,/ | %25
w: feel that you're * a- lone|||Ooo _|_ _ You can|
w: |||||
 G,G,/G,/- G,G, G,A,/B,/- B,C | C4 z C-CB, | B,3 z _A,2 A,2 |[K:Db] D,4 z D C>C | D4- D z G,>G, | %30
w: call his * name and know that * He is|there He * is|there Call His|name Em- man- u-|el * God has|
w: |||||
 (F,4 B,,)B,,B,,B,, | E,4 z A, F,>G, | (A,B,CD) C2 F,2 | (B,2 A,2) z =G,G,G, | A,6 A,2 | %35
w: come * for us to|dwell for now we|know * * * all is|well * For Je- sus|is Em-|
w: |||||
 A,>A, A,2 z A,A,A, | A,4 z A,G,F, | =E,8 | z2 E,2 E,2 E,2 | A,,8 | z D,D,D, D,4- | D,8 |] %42
w: man- u- el with us to|dwell now all is|well|Just call his|name|Em- man- u- el||
w: |||||||

